X:56
T:Larid
R:larid
C:trad
A:Bretagne
O:France
M:6/8
L:1/8
Q:1/4=230
K:C
A|:A2 B c2B|A2GF2E|D2EF2E|D3E3:|
E2FE2D|C2B,D3|E2GB2d|1c2Bc2A:|2c2BA3||
